X:526
T:Flags of Dublin, The
R:reel
D:Arty McGlynn: McGlynn's Fancy
Z:id:hn-reel-526
M:C|
K:D
A2FA BddB|A2FA BEEG|A2FA Bcde|1 fdec d2dB:|2 fece d2A2||
|:d2df ~e3g|~f3e dcBA|1 dcdf e2ag|fABc d2A2:|2 GBBA Bcde|fece d2 (3dcB||
